src/topics/icons/flow.svg

<svg height="317" preserveAspectRatio="xMidYMid" viewBox="0 0 256 317" width="256" xmlns="http://www.w3.org/2000/svg" xmlns:xlink="http://www.w3.org/1999/xlink"><linearGradient id="a" x1="16.107416%" x2="72.708733%" y1="58.187048%" y2="72.889608%"><stop offset="0" stop-color="#ffd441"/><stop offset="1" stop-color="#ffb047"/></linearGradient><linearGradient id="b" x1="70.213094%" x2="100%" y1="65.796781%" y2="0%"><stop offset="0" stop-color="#ffd754"/><stop offset="1" stop-color="#ffb532"/></linearGradient><linearGradient id="c" x1="22.177886%" x2="22.177886%" y1="66.13799%" y2="9.316171%"><stop offset="0" stop-color="#ffd642"/><stop offset="0" stop-color="#ffd441"/><stop offset="1" stop-color="#ffb532"/></linearGradient><linearGradient id="d" x1="88.952957%" x2="12.578611%" y1="24.298487%" y2="6.966288%"><stop offset="0" stop-color="#ffd441"/><stop offset="1" stop-color="#ffa829"/></linearGradient><g fill-opacity=".7"><path d="m211.6896 309.978667v-81.858134h-81.201067z" fill="#ffdf51"/><path d="m220.801067 263.565867v-88.533334h-87.821867z" fill="#ff8900"/><path d="m167.466667 228.1184v88.533333h87.821866z" fill="url(#a)"/><path d="m202.443733 180.962133v-70.026666h-69.466666z" fill="#ffdf4f"/></g><path d="m235.424 164.266667v-88.5333337h-87.821867z" fill="url(#b)" fill-opacity=".8"/><path d="m85.7354667 0v88.5333333h87.8218663z" fill="url(#c)" fill-opacity=".8"/><path d="m106.333867 138.666667v-88.5333337h-106.19840033l87.44213333 88.5514667z" fill="url(#d)" fill-opacity=".88"/><path d="m106.333867 316.174933v-107.108266h-106.19840033z" fill="#ffb700" fill-opacity=".7"/><path d="m106.357333 227.466667v-88.533334h-87.8218663z" fill="#ffb700" fill-opacity=".5"/><path d="m132.976 110.933333v88.533334h87.822933z" fill="#ffcd25" fill-opacity=".7"/><path d="m106.135467 120.8992v-88.5333333h-87.8229337z" fill="#ff8900" fill-opacity=".7"/><path d="m130.488533 228.1184v88.533333h87.822934z" fill="#ff8900" fill-opacity=".7"/></svg>

<?xml version="1.0" encoding="UTF-8" standalone="no"?>
<svg width="256px" height="317px" viewBox="0 0 256 317" version="1.1" xmlns="http://www.w3.org/2000/svg" xmlns:xlink="http://www.w3.org/1999/xlink" preserveAspectRatio="xMidYMid">
    <defs>
        <linearGradient x1="16.1074159%" y1="58.1870482%" x2="72.7087331%" y2="72.8896084%" id="linearGradient-1">
            <stop stop-color="#FFD441" offset="0%"></stop>
            <stop stop-color="#FFB047" offset="100%"></stop>
        </linearGradient>
        <linearGradient x1="70.2130942%" y1="65.7967809%" x2="100%" y2="0%" id="linearGradient-2">
            <stop stop-color="#FFD754" offset="0%"></stop>
            <stop stop-color="#FFB532" offset="100%"></stop>
        </linearGradient>
        <linearGradient x1="22.1778859%" y1="66.1379895%" x2="22.1778855%" y2="9.31617093%" id="linearGradient-3">
            <stop stop-color="#FFD642" offset="0%"></stop>
            <stop stop-color="#FFD441" offset="0%"></stop>
            <stop stop-color="#FFB532" offset="100%"></stop>
        </linearGradient>
        <linearGradient x1="88.9529566%" y1="24.2984871%" x2="12.5786107%" y2="6.96628778%" id="linearGradient-4">
            <stop stop-color="#FFD441" offset="0%"></stop>
            <stop stop-color="#FFA829" offset="100%"></stop>
        </linearGradient>
    </defs>
	<g>
		<path d="M211.6896,309.978667 L211.6896,228.120533 L130.488533,228.120533 L211.6896,309.978667" fill-opacity="0.7" fill="#FFDF51"></path>
		<path d="M220.801067,263.565867 L220.801067,175.032533 L132.9792,175.032533 L220.801067,263.565867" fill-opacity="0.7" fill="#FF8900"></path>
		<path d="M167.466667,228.1184 L167.466667,316.651733 L255.288533,316.651733 L167.466667,228.1184" fill-opacity="0.699999988" fill="url(#linearGradient-1)"></path>
		<path d="M202.443733,180.962133 L202.443733,110.935467 L132.977067,110.935467 L202.443733,180.962133" fill-opacity="0.7" fill="#FFDF4F"></path>
		<path d="M235.424,164.266667 L235.424,75.7333333 L147.602133,75.7333333 L235.424,164.266667" fill-opacity="0.799999952" fill="url(#linearGradient-2)"></path>
		<path d="M85.7354667,0 L85.7354667,88.5333333 L173.557333,88.5333333 L85.7354667,0" fill-opacity="0.8" fill="url(#linearGradient-3)"></path>
		<path d="M106.333867,138.666667 L106.333867,50.1333333 L0.135466667,50.1333333 L87.5776,138.6848 L106.333867,138.666667" fill-opacity="0.879999995" fill="url(#linearGradient-4)"></path>
		<path d="M106.333867,316.174933 L106.333867,209.066667 L0.135466667,209.066667 L106.333867,316.174933" fill-opacity="0.7" fill="#FFB700"></path>
		<path d="M106.357333,227.466667 L106.357333,138.933333 L18.5354667,138.933333 L106.357333,227.466667" fill-opacity="0.5" fill="#FFB700"></path>
		<path d="M132.976,110.933333 L132.976,199.466667 L220.798933,199.466667 L132.976,110.933333" fill-opacity="0.7" fill="#FFCD25"></path>
		<path d="M106.135467,120.8992 L106.135467,32.3658667 L18.3125333,32.3658667 L106.135467,120.8992" fill-opacity="0.700000048" fill="#FF8900"></path>
		<path d="M130.488533,228.1184 L130.488533,316.651733 L218.311467,316.651733 L130.488533,228.1184" fill-opacity="0.7" fill="#FF8900"></path>
	</g>
</svg>
